-----BEGIN PGP PUBLIC KEY BLOCK-----

mQINBGqW+nIBEADEgaSB+zBSOxpGEsGIMPNcaH++t7OzmY3IytyyYb1954XQbG0K
WEzudh2b0i3TpNyAG9Sd2Kf5saGgroeakGVUCbloBO2l10Eo8XtGotGGdZsmSUaY
DaYx8dPSNHv4DNRh7HXTP4+Vqh4jCp577b8hacFsiUaOCDEPrC3ZXEsxismlCW63
Zj5EyqrKaw7aX8215mAZlQdEy/q/i/uWXcmlOC2DCCEGdPsh6Dvz/YZdPb5TxflQ
hYAh4HErLDHEzSxjJSwdnzFJeYweuYnspGX42qiWLkCEdjPYsLDzDGap45IfJqIW
dWNzp1qbpQ+zUQYfu0Q00f8RIcP9PehPJgOyb/6KIgpVQ5CiU/VpTGBaUbrusWeZ
K2RhRJJpzkVHeRZrqW6b/27NEqx92CZVOj0191KepbsEKGJj4PWcQJv4gG5xdR05
rxGONMC6o1Rywi0W/jByH0EvdLg8Z9q3LLTvPH049HPcq8iGTKRiDX72fLXuHwfR
jNOjqTETqWgARKA77mkEoQy7QCgvtekK89fkSa7v2qvSvg9CfZil9SFGOlaTlcAa
/SqCzVPWPApgUrEHsiSPCm6rq3cVGe5rlXqBbHGE5wS3Lily072Lh5dec4CMSCGA
0gNUZ+tBJsyofiP/de7NU8WYoS1DQLgvCRR5kWm6m+ifSdpRBMFR1bLSlQARAQAB
tD9XdUtvbmdJTSBBUFQgUHJldmlldyBSZXBvc2l0b3J5IFNpZ25pbmcgPHBhY2th
Z2VzQGdpdGh1YmltLmNvbT6JAlEEEwEIADsWIQTU1fEq0P3K5NhbV34xirsr1Atr
sQUCapb6cgIbAQULCQgHAgIiAgYVCgkICwIEFgIDAQIeBwIXgAAKCRAxirsr1Atr
sQSQEACh0UfVxkpsIF92HoVFGc92KUn2BAYUKZENsSu7sz9qIRFcVBnJGCTZ6PFj
saxABiFduP9t8psnSVIaKp691oClIxPr3zY8TJkgT9AFvK1nSWfD59J4R+uyVs15
xQj+p5FWMYhLqkseLsTVmFmmPSecXpt0dxeZT7oZdJl0/tU6xiwgCmU8j6bwSfPS
UvfU7Tvr+5biKm605Nq67erhCmhEspazqVZ6ODqNKbN/N0ofEJSfXR79M/LlsKa4
JYs385qfutzGOQGKGza8dWdfWpOlwZeDtIZvXEfbq1swB4i1z5ODNRfxtRpf+d1c
qT4+SoRpwL7Rr4jI+Fy9IzJZzNLq0cZdXbY+FondZpBGGUWwLs5xOltiqWhYSvR8
R7Lmg84YSCyVE7lCRDlQeNMDKO0KaPDFvXBnchsBPYDkrcT6Mfmixvi0TcjdWWJS
4p4yLTHttMhW1LlI5aJqpa+EBGsYwSz5mnOGPDB3uThkLvpOQ7W/P++C2N14pm3z
C2hHCCaJmgoH5RSEoM8O488CGjXvx10l0svWEz+cOvL/quJV/1XgJ/B/hGHiqd+W
IiNGW+pCdWo7EZ25XDBvHsAizMB/HuvzW/qnFVfIDWk/EeAWrssR8aWMpNdTIWCT
TqUPC0fYS62fBNEvI4zBqUuEPoxsRyj6ZHyE/Uc+pvhS+YslabkCDQRqlvp0ARAA
r9CX6w6xcJr3QII0jMNuKqqsqQ3QSF0jrJb3hr6qj4/v1l9zMCwH5kwarLuCm+fl
KmGmnBwdi2ZmpUoNbsyaO/zgdvVmws+l0e3yxez7SyO1r7nteRga0xM7kxjPzDPw
t3n4ihK6d7yplMfAJ5SEL3fJHZUAPGZhvIo7euWz2KQSOKA5SI3KqnQ+ssNcI3bz
SvOcgJpy21iWWS2eEJRPTJ8FzCnODLlvPOVmktrWgcAGLgpdD7pqOp/tKzDBiw5W
Xt1SGpUTM+5VzNY4pp5B4RtIPkmJDkAo1ovJzOF7wc7EwXP9Sx4zF8iWT7tmtNvt
X/rqICCyc6LDlYGdQdkEJDUXgFaVbouwBybBn+PiCOGIQOPtb+y1GBMcIAcXO1Sb
roSwQ4AQDk9x2QsmHBWxSi/NQOylGwNyoWOQ6gVXFNRPogpOVp+pWW2pSNEXDclP
/ZNC0Mgu9lm640km23HBnseg3b53TY5Hu3hZ/5vlU1qX3V7tFAUGScOTNzJaLqGH
tIg9mVA9iXaHnD1IzxD1EzUSjyQzy4XZaLzGJ4arItPP/djxOUXMQP8lenVAOo0t
7/2bgtf6MIzmaEBjp+8EHzLMeYdL/mRDG+uaJcf3Rq9XZH4ZYyR40AlCP38P2DYa
f7JtobeOLsc5Ly8stF74tOqkHKbW6/N8pB07gB3n/V0AEQEAAYkEcgQYAQgAJhYh
BNTV8SrQ/crk2FtXfjGKuyvUC2uxBQJqlvp0AhsCBQkAnjQAAkAJEDGKuyvUC2ux
wXQgBBkBCAAdFiEEGk2QyF05jCon3+sh+IqCZ52bUoQFAmqW+nQACgkQ+IqCZ52b
UoQUwhAAm1FI+bH+GL7QiCZFoJTYNppfy+IK7qso6eQMkgz1gyY355Ueoy2GL1VK
R+/cmoT0hxFyu0Y4xjTe9WROq0sHajLIzpsBjrfFpE3ER4cK3TBaWmVTebNKBuPf
rCMIbh7sUUw8ULHXpe0uQ0YrYizExiaieQ6ZQ70V6oacXatoWanulwU8xozx2PLv
7XFh6oqr8/WpyAwBz0QyJtmU2mO0bt3hCXu/g8kdNOMEo+zRnORSz2LtySQuEzCd
ClEN2bqA3PD1lFapkPpwqqU9S3GK8ptYXoXDJf2Qw5rHXJrgz1Hlq6rYQHafVcRk
3Ex/7VvU+21RtLs9+LnBV1hdKnfjxcR9eE6m4P7tBlrT/iO91HJMuzW6erlXzXnZ
FzSUGuA7edMgEYfbOmPuhhDd1T4fmUhewTpiBzW3xuX76FjUOY26ny8GYRgatEnG
9S2hO1JSc9c4JV0bM4iXAVgbcWrkYFxDXCdQlekqOUxVQOQhNnuXUXDD03YFLeGt
2u0wfyVCy3gLRJL4QE8k+/LJdQowfrV6MC+rHEnLbAdRdReUOawuzyM/ru9HaEBf
BNpbmmZiN0GVpYd+G7cHipL2STysef1vCfiKonL1maJTd5ZZwlPXH6zTaE2uKyXm
LHh2KEznU4Ku0UvvGjJNwAzlbd+K5RrrlPre6+6z8beQ91Zz0PHutRAAkkPBjwOE
AMWbNXmbNWbN40meiYAuwWxGavc1sNry696+DMY3MTrDZgc2YtyhOokpXMCcjJMQ
miSsI5q60t/ReBV8aT5On4BmyUNWosyhKcjK/2tRaKbtj898rHNyxwEM3971ciRA
AzwHmRXX2JKIWz/NAI3NF1NIbzTyMZR5afJQ5xexCCGrap7Yh4OV/+aiYrehy0lo
NUrx758ENYWJmxX8wff5Q5e6vEVinChT0zjQ8ins4Xl5kyTOHu+7feF9s2l4Jv6k
pQOkbE5w9G0E+tA9N9DI5p83+yUuvpQ2tq5/JIvUY7u7kJiGyd5rG7scjPicTTEQ
DYRphRuMjjx0vuSDdNLNMLuFZbVHlHvGjxib58OGaC8jOsnUOJ3g1cgGPLEJZYAd
5h+YXwvJtOeU+LMIORUMdQT3RK6NDOxu7MdpEzgfBb3KEKN6nmU7fqNUELJAM0a/
W4//BXmtq/UdSiXE4LWqbC5mWR/LgRK80xz120jKNk+hqNsIkoXeCCMdmL4cy1Me
eJph1agOafIHAqS3hFNXn7WA9caiJs3DsAFldlGmc/oG5/zFbin6+o3z0U2izY9B
1P6Y+4TPJd7Ywb+qfIyc/exO9HFBxYI9pVL2VD8TJO3H9iLwWPZfCUIBrr93BaFL
m/aCntEmDPPJf1HgAl9e+uJR5SEKbzzsxvm5Ag0Eapb6dQEQAOs5KpW+o1ryosL+
wDxR+ClIJeEJLjYH8Mx9P6bYXROVU7mctXAGA+2bYqs1Wq1iPC80fJMUgzHdzdzZ
Wl4c9KEQfxdXDa1fb30jc36VwnICuqLW0oQzmic/TDWrU843mLrwHs++sJ+Wb9y1
6OWqxnTFo1dtNaW5SPEENWwKmCSKOjqyzqbuQHECWmFuALd0C8DdS9W54IWAjVeo
mv5MmTnqwKJbwg5uS32SxbvKDeN0MD/QsZIMc2oQFUTJaNbBjGImL8rrKvORzqxD
Al4pBqCNle6TacUc+UkcQI/4259wtLdDH71BlU7w0ier3BXMuHzb8mUBMLL3Mk9x
fhBKFwdHvVv1xPmlo1odbiDab36oQGytiSff/uti7OmsFGDeYnE8ISdry+1TKeT0
fvIZu8dLz3T55AU+dHZZaCU0eWecEQKBFn8D+SAGiqnHmnuGBZSzVkfIjycz+Dkc
dCT3XW3cY/Zqy7iQpC60xkZBJz97QhSR7TeTzOBRnhMY2QMlQLmJzj2XqShQg0dz
4rvp4OO9i/LNCVPkdjYYzgFho5setMIDWAngthoGVhMymmSmpyi0vTiY1Yj99gy8
12i2BrYH2RErUHnUv84mqZHE36AY3uR6Bun/QY885smqjM+LsuGoNQnwbyK5HHmb
MTRCN2kOzh7VIud7Yh2Zl0TK858RABEBAAGJBHIEGAEIACYWIQTU1fEq0P3K5Nhb
V34xirsr1AtrsQUCapb6dQIbAgUJAO1OAAJACRAxirsr1AtrscF0IAQZAQgAHRYh
BLsQZl+pY7hdvCKsWjIqoyyYCnYdBQJqlvp1AAoJEDIqoyyYCnYdawkP+QGnAiK4
VBnX3VJegh84DtIHF+QoZXzmPob88dAYGKxf2hxiPXD4CvWk2XSYIXHjEG+N/+rB
PJkw+vo0kl6iW7vhF2SWuxQGuQYm1Fbba4OdmdVwIpXPuNw+Y+u91E+blXq6Tqc8
bw5mzwEgJI4XTxCeRELucGtOKbQEtGK9HmV1CuD0v4UCbtZmfhYF4LPiVtm2IsUE
4dqvtQ0Lg9mUCkaKcfcqBfRYC/8jNv03RGlC2pIF/NzP628o2KQNJCbotuOpHj4R
cqpsQwZ6Ht5j1pvShPOFN8/3h5H/3SVgbPdbJjbC74bLJuAJBYijbl7uum5DYfrX
D/036aEHzlb34QJeWD17zWPTZOcyIFUWe3lD/1wTmRF9fFa7FZwQruwDSYDcrY0w
/Fxy98w8i5Lh8nv85YmzJNV3Psc+ngp44HcDQMO2rxbFDJv8UVxJrrtIs1A7TNuG
1dilIZI6lgS2SeC9GlEjNibFS//LH6dX7LTAnlde3GXiM5h0EkVUXoefe/lYWIob
u9bjCZeiRsYS2CE500NFveVbDFe0wH0+0gHv9gXcU5LskkyEr124fR1W4GClkO4A
WHZ1FVGvuTs1gYb0DC7+H9ZOf+decvFP+OHUqJ+0VT9SgZgf2g4aB/Jim+NpM22L
BXsrw0WlXuSu4qel2IkdHD0dWz1JuTLm9rzDmm4P/2ukotQ4FckqIsJ6jk1EoLnG
51PMhTFOJPQTjXJgrS52AnD/JqRqX6bS9IVgXXC9XfJT2j2ZTBhvSFBAI+A2WlaQ
2RxlpA8kz6iIBHK57OsSxq1YjePeQ9tP7wXznv9KpySQWAd6oX9GoyIN2DHpV1T9
QSs63vA2qChlKQdpVbmRn2v8KL+ylZ7riyscrSLkukBSlt9/g9zeVsbkQE2JgTxA
mV+AL7hKrlQ25zHCZdE5UESncDEqhPpXcLOZvqS/Vy65H9etDrv8WrI11NYav8Yl
DPgAkqyxfMI+bDJOVjRs5hHinq0DeHYo2csT56JAIH+muhyEz3fkMTdD9YmIS8zz
WAQuiQE4IoyPjLtg1LMhSB0oSDIo3uW4izEnYBKg8hx254AkYcBCV6e9beLBm/AS
5EHWCUTpkKqpxt3dcsk8dTuYzzAF1LWXn+msXP8mQf5QfsQjzGizwGo2pg4P63/X
R9y/AJdq9IT4kTKbNwpbKtZfXI+A/aDFTC7Y03u66L9eu9NIj7gyCXmoWd9cJYTN
A3+Se/vQs7fFx886/7cK58F1wEXmZ4LPgB3EB8v7HsjczGvfRrYvvlYTDnIl6SX2
BCjUyg8AaSuz/Sw0B98XcACuPJ/Bfkq7aZXaP8PW2YECyT5YAHtDicOYy+/wEJCB
yu7uOvC8I0pwrSck0Rs9
=be8M
-----END PGP PUBLIC KEY BLOCK-----
