-----BEGIN PGP PUBLIC KEY BLOCK-----

mQINBGqW+ncBEADiNftq8qJPTImvNueTN1sYKx9uhp4yl7YJDMZlKImjCaUmT974
+0wRvCpBAarSVei4XnwRMgywiLKAmDzEj7me7q+sL24JhB22kJrGjB441qetI9V3
U/PzIkxHBUrVkhsPsyzpsuZ7N2DDsEM1Cx8GYudMTbEmyUVjkobwj/S0CsHoQI9i
o7RXZSCNg5QbboCoaoRAxwY1vOdft0a/7nu5Z/Ux0Nfj9sLcYlYy9Q+4/OUf/JmC
/52PV6TMs8BwDj2UWBmsCa+39+DNHtMJ6TEsAA1s0s5H7jGLE4Cj0NJivEa73Mre
sEoZuoj9zk4ypH4XBK6DA37q1froO9izM2hl8HHe6XN9IYirIpAjUQlcHBmaMcVS
Qpz+XESmyVyQh6qeJZohVlirJN78SJt6W9T2I7onhBDcCoa06JkRNSZ0LhRAVk7h
5aaVW1r+RMXh2gIjGuu7kqy/u8AIp7D2pdx76vZDBd75IYRqw88JvbkyoLvQJhTG
MZEVSTNm7fcj2HW7EqRqHP307/rQn5xUcbMUffN+9Sxyy/5TKsgVIfm/EHRyavwy
4iclG1RXz2w/n91NijSOwVe6Yenvez/Bex2MUuYJS9lKlGnGSWmA5tFU1ErtZGsp
AMlycsNhWujfb2FSaCTxvpsVjKrzvVMn7oEfXTwHJLcngS2DhGY4+Lp76wARAQAB
tD9XdUtvbmdJTSBSUE0gUHJldmlldyBSZXBvc2l0b3J5IFNpZ25pbmcgPHBhY2th
Z2VzQGdpdGh1YmltLmNvbT6JAlEEEwEIADsWIQSo+59mDsO09AuFPEoPtkyd0IAU
WQUCapb6dwIbAQULCQgHAgIiAgYVCgkICwIEFgIDAQIeBwIXgAAKCRAPtkyd0IAU
WTttD/9mA3IkXRgZTsLXsn3HRGo4zPEMdM2WvPX2Lqd018wSVQkWc9fE0gUa1zGH
jh2CPsqdCjps4CaWpD6ntWqocV2vcsqhIba77eknomHJwaW6lbc2jMEsGA7bFSk1
Hui0wU8ojifjS0/BOgR78FtbbaDR+sfu9Ja86X1/c998NDUMQYr5xgN3R59FFKiz
2rxMxVBhqr0cqvPDeapWR1W94ygoNo2N+XufJA+eus/kxR0aiZnnugllCpSsiGEc
1JGn//JVNy/+LdAnLkoU3knSdYBF4u8ilQB8XIDvOH12K6rdGtVMTUHnr8z63zXa
nrPVDv+p7x+E7KTCSRUs9Acli8CncMWZCEGrmFGhq9jfrXC3aFWn9CHGmKBqpf4o
vyKEkrp+kZ0UoUKAdnIilRQLNseFSnsorQFwDd4LThXUdRyLy2mGwtvHbAyGZ9hv
BIMuLf7g7SQQxjLmzaq5FV40BR+u9EUbxs7BzfnxNDLRg4qBmmfwnsyxKzNc+7AJ
5le21Dido5iHSxohY4QoWd+fwCj1HZ/Too2LfvK4k/Aaa85Lc2p/nFEilCEvgUqL
U8KKAHmZWp++c03sX5CjqfSP8MipDOY7b2TCiQSoDwVg5IYthNm0cpONGsxFgr25
o0MaJg0ktbdXAy9xls+X7Xcn0sXWEs1b6AXwpBlcMWrVkTefPrkCDQRqlvp5ARAA
qBKawWpkxrmIuN3IVMURVgSkNOvYXL9ZiM4iRckJU2DTlsIF/2/0iZqMFTXy4KeA
Ryds5JT7fZPDuXYVJrCzEXE7p2Esk9KfEHE775a7jiYisJUIgmkkMtyTzhe4K0jP
8O6bYlo6otmA8+eJfZ0kVJQsv6Ext4Ok76d6dBjdNcIuUPclGDk5TUPmAln61swR
xAeyytRaz3FYLap3LJsQ0G00ibO2pEA9hLRcgVmPZzsM22eInFLWl67rzNP1g3Bm
I8oliJcziM2vUD6kYrzbAaOVB3IOae4x+itW0M6lqa4wR+RTGx3/C1fKy+z2v3Ve
5+FzyyJ2EaWAtDnmg9+bXUnJD8mobQimVeSz3jibx3Xt0SYrrmkc9JgjrdpATzVd
FyEnRHnMxWfAveLnMgitpHjd8jZUtxpVA2syKbZvYeQr42/DJktUEZLb+s/Xtnrm
8e4gt0gFmBdtuqFv6KN8wa/lpBRK1cs4bM7ZrnifYIatP78sNJUmT9y78/zjXdAJ
LP4Yf/bcoMJWcjWCX47hSaIDDt85VYowVyrQSJPz0eLUtYe2Qs9zGz0+SpKAF8dS
6cx/aT+b2+unSQwsYsHbWPkb9mzNglQsGxDd4U4aG6Q3P8FFGERWfUxhE7kNbb2h
jaGgn76RM8Tgv2L7U1pMV2EKx6Kq1WHL+R9TF/7yVNcAEQEAAYkEcgQYAQgAJhYh
BKj7n2YOw7T0C4U8Sg+2TJ3QgBRZBQJqlvp5AhsCBQkAnjQAAkAJEA+2TJ3QgBRZ
wXQgBBkBCAAdFiEEwu1IANoXeI0N8VD1Cte+TmtaCFMFAmqW+nkACgkQCte+Tmta
CFNoqQ/+LCvkJ3+jGmt2N2bg7kS3lo2GyPXNveBJY/kLfXN8+pmVNhOAvRFbv0za
6QpCaVnT/ecCQkI6vMwV631IyiClsWWyqGPGt1OefTlrAIu4sZCFIr9UB3ERiZ2O
EwPWWcKswE/9gDvQlZky13hoMnAqlmFzBN14wzu/yK6epGql2F+knKkOv0/Y0a0V
9KD8Bi3JXBIzz4PQjCLMpat/Z69CilXoZLcbCiYHnNCpmAG4AKvQ7cMmiRdVEGJl
n+qGxyxwLlhzjPCfF+SqCXQuwnl6NyJXCHxuEwwBGiBwpp8pVfnlhfwtD7d6M8Tl
VVbqCYujADvmDw2XRKklH34KdLkBJDhOrsqTtjYqp3K3vnkuI9sWkSsrUxQ7u+0t
ZpLlNV5go47LN4NrbKmEVRBRXuNVlCOSF3Nja3Y1S1I1I+itFpSPceZOg9ANzDB6
nlqFkLed27VtuE7PzPg8ct/nVgFjcIxcBILodZmvSQ3jeiUUSUueblNgSO5m6r2w
5DB+sYv7R0KxpmD2sd1O0tdhg9ieJoG6T4PgPBlgW0oLYJ68sgFU0FFbvwUfCLh/
vZEYyCqahXGkQ0LgdSp4quJc2bzQIaVYZL27VeIl37G1lmRVR2kQLw9gi6N+KJvf
tsM/erStohuxeXHQ/RKogPklEpvyVBLYsGbKU2l4tfbjiVggUKGXww/6AxLfcqJx
xvi0mCsAyxqVSGSnkvt1py9e5GDEnBwdawD6vUbdBVXUxYkUl+cd+1HNpW4/vHmA
+OlaXvw2VQHYxaPRlDhwUzqGUDzlVr0Dp7g42gLzgKAxQQivlLU31ILt2QeR/+y7
DHOZboRNCACOQBpVx3gzkLRuTSk7N6IJH7iUhbZzwiM2JN6wmi/e/SOpvQXCk724
Cu+xdma44X3uC54DcKTm2UI4Lnl9L2S2CC2yEdRlmjM6f0ENEKuKxrhbWk0FF1g5
FsybaPV0vea1BBQbJsszkfHTi9GlhkSbMoEPZ196vu9d1W0DN2+iQztzOa70Zt1q
BtLx6zRSTSPd5AJMq2sek2uja4UMY8qHZ08q1xUrcbtfuiCQ2U2aCMd7T4QbRN+a
E8tks30nkZFgMA3oB/eETqNS6ExSm+NXdqN3mfp3FOo/2SpeWfer5pKXB2+hHay+
vIsXJwbxnyQ94jQrn+0RxygmpGxPg3+C+HuN/mpAUTKVa3MqX313S/jbvnwBOYyl
A+aBSKqxBM3EIM0ZslgNxyJ9pZ5EJs9yNU1srBi4/FjxrA2nV0B+QbYKVI5PkVgu
OuXRLmsNKnFjZBO47/ri6IzQF9n+SNIcz318Py4UFOehv8R7j/XaB3eKAI9EggvL
Rpelgsi2mCLTJXp7jf6fz1z9xpPl0H8NRaa5Ag0Eapb6egEQALIxLFcdgGz5WBHP
ZSZFcRXurjkn2tWk8C7S5tsvNp61PmCgOoyLLz0TXITI1NDr+TtsiCda5DDrWH3w
IidjXzVZz40Vbqt+4I68N6E4HsY/P34c8YYQ0YWEW9XlVShvMWL3PRtyEq/x/RPO
VcHEz/Fbjn2KqzQFqvEpdZo6V+bTKQWPLhcivXmNlaj6suzGbIc2rPJQp2INkwZo
U9wTSc153PwhpvYOLmEumntBRyQTN94YIWR4R4VZA2Kj+r9gk7h2EBwQ65W7xU+F
sZ9CwbgAhh4csYIUZtl1HufZv/PzJTh5cJLyk6XE8/XwXvZGDRoyy/xnT1FrSZzR
RPl5DdIXHhxea7D0GuMg/kPxLwE1dzutFzlkFTqBmaaiMipSJEDgoHeDOOyc/nfm
9mSuTSpzCm3NwKSXiDJPGsDoO8bv6YJB8s/bScGJRTfG1dYP7pWw0f8Solt1VRKs
3piNhhcjTZccDxd8ltrhHCW7V3QpT3sHk5w8TB6q7rhEFYLwMZ8gVvJU29pNAuQN
u59IfIfB1CKc90mcebfT7JhKFHNJyRiPAQmhZy903gy5wutlJNamlSaGHA/8pw30
YD8fIpw/k8nbex1ZXRshiCObkZ4D3qEzHWj82PeGRilk7lF+3DJukzcBd9wjybHx
TUhNtYtu68NsfWWlgHHA3/agCmKTABEBAAGJBHIEGAEIACYWIQSo+59mDsO09AuF
PEoPtkyd0IAUWQUCapb6egIbAgUJAO1OAAJACRAPtkyd0IAUWcF0IAQZAQgAHRYh
BNoGLzzNUvTKcv9LS4gcRMAePrz3BQJqlvp6AAoJEIgcRMAePrz33mMP+gMwix9X
AV9w2zwWW0slHV0RPmV+NyzYZrE9eWJr95kyNa9RGKfQ0wOLERmkLUR9g9iM5fx1
vsZhp/2JoVsUQ1oNVniwnksIDDEJtMuGHEdWLUuEpBOYBpQiGYCU+WIVUl+pIgHD
VDS4iRb9qln4kSELU9yCTu7Yh3drGwisubhG/W2ufSezMV6nfr0YWThhN6DQ327K
3eqXLJbTnHnOm3sDxtwpgezsZUlW7R6LHoYLLWfZS/2ZZW9HOMHKgVMxkce6mO7/
yhwW4KVvGhnbEy6ViYUmcXhI3SSfTtj5Og9hhbGX1AsECBnw0L31I8A0A0PpeC07
LAeIImijPiXeoyXpWAg/hzCBeyaa1f7sWbjLVhK6q4Zr58WGRlUqGhosmalAJYyV
mXGdNgEnnHzIO/4dZRQLtjq5hpKVW5UxvoC/QJES3NKP+TJ6ztGPtfGyct73gKK/
JmNaEAJ09X+2GbIqHkOmwrto0jjbClm+JXn+2PIApbsbHdspy++LDfVfyiXlQUZq
SAZLuSQAGjY77kVJUX3tekBPgNrzu6C+Xs6w9jbFbQe6kv3tG3nAJJau04BoR7iH
FHD7xRzvfbstpaJ5gpF+J0xIswcNNshlXlHvoRuAXdRJbBSrJre968Klo1h52/Y2
ACtal/SMqFbptaOaqSZGV7Fppa8JQDMrJkwz8ccP/0WkziKKomiH3jvWsy4Q6OKu
/IIgzDi5Z+XBukXG9L7bGiHD6KVTEoDsrIg4VhcJCrqc6qoB+hNTP2dBHNRXICa9
Xmx/ZhCHzBcGBI+dp9zFSs4qy4+l1IivGDo/CTKYZoUM61O9OUEqnFVzkz+F/Mis
cV8NVdRPoJClv33WBCX05qN84Zoq8KkfFbACw+GUIxuJ6szYPbvMx6rXlFf5PAbk
Lx6gWRttW5tXwkRkI57XUKYkl5tJ8FTaodZLymAL3cqnB7+dJ2PH5Mbm3f0NAiMm
0x5kYOugH4VDEP9C+Cy4DJqjXNZp7CXSn/TB9qrqizc/IWiQzDQEGXIX/VuS766u
rHVPbFrSIgNBSF111sja5fTnSxOhb34yq8qBMQ4lf0yxIjCuCq6rNqB5XbiHeiBO
dOJVUfcji6Ka0H5Dj9eKr3KMV02RAgXH/5CO2Oj2LDdeHYYIex5L7hdVdTXDBHay
ch17eGAWPrcC+BTmUzxHyBDoVzPRpiykygA+E+mqSu2jt8iLE+EzlwOOvRr3McYH
HtigTZmlenTJvoYjuzoeyr1kmCNfgRXGe1nQtvhFx8u5NWkFBUiCfERrxXmPH88+
kbXRzK/eMa2Nutgo7WayGLOaX98mMVIujsqw/bophan7DtKl6ZgH4LTddtfI07/0
p5BlpdG9+NEW/ROhZ7FC
=DaCh
-----END PGP PUBLIC KEY BLOCK-----
